dist/images/mdi-attach-file.svg

<svg width="16" height="16" viewBox="0 0 16 16" fill="none" xmlns="http://www.w3.org/2000/svg">
<path d="M10.9993 3.99996V11.6666C10.9993 13.14 9.80602 14.3333 8.33268 14.3333C6.85935 14.3333 5.66602 13.14 5.66602 11.6666V3.33329C5.66602 2.41329 6.41268 1.66663 7.33268 1.66663C8.25268 1.66663 8.99935 2.41329 8.99935 3.33329V10.3333C8.99935 10.7 8.69935 11 8.33268 11C7.96602 11 7.66602 10.7 7.66602 10.3333V3.99996H6.66602V10.3333C6.66602 11.2533 7.41268 12 8.33268 12C9.25268 12 9.99935 11.2533 9.99935 10.3333V3.33329C9.99935 1.85996 8.80602 0.666626 7.33268 0.666626C5.85935 0.666626 4.66602 1.85996 4.66602 3.33329V11.6666C4.66602 13.6933 6.30602 15.3333 8.33268 15.3333C10.3593 15.3333 11.9993 13.6933 11.9993 11.6666V3.99996H10.9993Z" fill="white"/>
</svg>

<svg width="16" height="16" fill="none" xmlns="http://www.w3.org/2000/svg"><path d="M11 4v7.667a2.666 2.666 0 11-5.334 0V3.333a1.667 1.667 0 013.333 0v7c0 .367-.3.667-.666.667a.669.669 0 01-.667-.667V4h-1v6.333a1.667 1.667 0 003.333 0v-7a2.666 2.666 0 10-5.333 0v8.334a3.665 3.665 0 003.667 3.666 3.665 3.665 0 003.666-3.666V4h-1z" fill="#fff"/></svg>
